packages/kaspersky-hexa-ui-icons/src/iconsSVGs/24/ShareLink.svg

<svg width="24" height="24" viewBox="0 0 24 24" fill="none" xmlns="http://www.w3.org/2000/svg">
<path fill-rule="evenodd" clip-rule="evenodd" d="M17.1423 1.30884C15.1954 1.30884 13.6172 2.8871 13.6172 4.83398C13.6172 5.12819 13.6532 5.41399 13.7211 5.68718L7.87264 9.28312C7.2483 8.72189 6.42245 8.3804 5.51685 8.3804C3.56996 8.3804 1.9917 9.95866 1.9917 11.9055C1.9917 13.8524 3.56996 15.4307 5.51685 15.4307C6.38636 15.4307 7.18235 15.1159 7.79705 14.594L13.7382 18.2469C13.6593 18.5399 13.6172 18.8479 13.6172 19.1658C13.6172 21.1127 15.1954 22.691 17.1423 22.691C19.0892 22.691 20.6675 21.1127 20.6675 19.1658C20.6675 17.2189 19.0892 15.6407 17.1423 15.6407C16.2366 15.6407 15.4107 15.9822 14.7864 16.5436L8.89369 12.9205C8.99016 12.5991 9.04199 12.2584 9.04199 11.9055C9.04199 11.5876 8.99989 11.2794 8.92096 10.9864L14.7366 7.41064C15.3665 7.99902 16.2124 8.35913 17.1423 8.35913C19.0892 8.35913 20.6675 6.78087 20.6675 4.83398C20.6675 2.8871 19.0892 1.30884 17.1423 1.30884ZM15.6172 4.83398C15.6172 3.99167 16.3 3.30884 17.1423 3.30884C17.9847 3.30884 18.6675 3.99167 18.6675 4.83398C18.6675 5.6763 17.9847 6.35913 17.1423 6.35913C16.3 6.35913 15.6172 5.6763 15.6172 4.83398ZM17.1423 17.6407C16.3 17.6407 15.6172 18.3235 15.6172 19.1658C15.6172 20.0081 16.3 20.691 17.1423 20.691C17.9847 20.691 18.6675 20.0081 18.6675 19.1658C18.6675 18.3235 17.9847 17.6407 17.1423 17.6407ZM3.9917 11.9055C3.9917 11.0632 4.67453 10.3804 5.51685 10.3804C6.35916 10.3804 7.04199 11.0632 7.04199 11.9055C7.04199 12.7479 6.35916 13.4307 5.51685 13.4307C4.67453 13.4307 3.9917 12.7479 3.9917 11.9055Z" fill="black"/>
</svg>

<svg xmlns="http://www.w3.org/2000/svg" width="24" height="24" fill="none" viewBox="0 0 24 24"><path fill="#000" fill-rule="evenodd" d="M17.1423 1.309c-1.9469 0-3.5251 1.5782-3.5251 3.5251 0 .2942.036.58.1039.8532l-5.8485 3.596a3.512 3.512 0 0 0-2.3558-.9028c-1.9468 0-3.5251 1.5783-3.5251 3.5252s1.5783 3.5251 3.5252 3.5251a3.51 3.51 0 0 0 2.2802-.8367l5.9411 3.6529a3.53 3.53 0 0 0-.121.919c0 1.9468 1.5782 3.5251 3.5251 3.5251s3.5252-1.5783 3.5252-3.5251-1.5783-3.5252-3.5252-3.5252a3.512 3.512 0 0 0-2.3559.9029l-5.8927-3.6231a3.53 3.53 0 0 0 .1483-1.0149 3.53 3.53 0 0 0-.121-.9192l5.8156-3.5757c.6299.5883 1.4758.9484 2.4057.9484 1.9469 0 3.5252-1.5782 3.5252-3.525 0-1.947-1.5783-3.5252-3.5252-3.5252m-1.5251 3.525c0-.8423.6828-1.5251 1.5251-1.5251s1.5252.6828 1.5252 1.5251-.6829 1.5252-1.5252 1.5252-1.5251-.6829-1.5251-1.5252m1.5251 12.8067c-.8423 0-1.5251.6828-1.5251 1.5252s.6828 1.5251 1.5251 1.5251 1.5252-.6828 1.5252-1.5251c0-.8424-.6829-1.5252-1.5252-1.5252m-13.1506-5.735c0-.8423.6828-1.5252 1.5252-1.5252s1.525.6829 1.525 1.5252-.6827 1.5251-1.525 1.5251c-.8424 0-1.5252-.6828-1.5252-1.5251"/></svg>
